Sources/FrostedUI/Resources/Icons.xcassets/plus24.imageset/plus-24.svg

<svg width="24" height="24" viewBox="0 0 24 24" fill="none" xmlns="http://www.w3.org/2000/svg" data-fui-icon="true">
  <path
    d="M12 2C12.4142 2 12.75 2.33579 12.75 2.75V11.25H21.25C21.6642 11.25 22 11.5858 22 12C22 12.4142 21.6642 12.75 21.25 12.75H12.75V21.25C12.75 21.6642 12.4142 22 12 22C11.5858 22 11.25 21.6642 11.25 21.25V12.75H2.75C2.33579 12.75 2 12.4142 2 12C2 11.5858 2.33579 11.25 2.75 11.25H11.25V2.75C11.25 2.33579 11.5858 2 12 2Z"
    fill="currentColor"
  />
</svg>

<svg xmlns="http://www.w3.org/2000/svg" width="24" height="24" fill="none" data-fui-icon="true" viewBox="0 0 24 24"><path fill="currentColor" d="M12 2a.75.75 0 0 1 .75.75v8.5h8.5a.75.75 0 0 1 0 1.5h-8.5v8.5a.75.75 0 0 1-1.5 0v-8.5h-8.5a.75.75 0 0 1 0-1.5h8.5v-8.5A.75.75 0 0 1 12 2"/></svg>
